X:1
T:Mumbai, 87.87.77.77
T:Mumbai, 87.87.77.77
T:Philip Paul Bliss, 1874
T:Public Domain Courtesy of the Cyber Hymnal™
C:Philip Paul Bliss, 1874
Z:Public Domain
Z:Courtesy of the Cyber Hymnal™
%%score ( 1 2 ) ( 3 4 )
L:1/8
Q:1/4=80
M:4/4
K:Ab
V:1 treble 
V:2 treble 
V:3 bass 
V:4 bass 
V:1
 [CE]>[B,D] | [A,C][CE][DF][DG] [CA][CE] [CA]>[DB] | [Ec][Ec][Fd][Ec] [EB]2 [EB]>[EA] | %3
 [EG][FA][GB][Ac] [GB][EG] [EG]>[GB] | [FA][FA][EG][=DF] E2 E (F/G/) | %5
 A2 [EA]>[EB] [EA]<[EG] [EG] (G/A/) | [EB]2 [EB]>[Ec] [EB]<[EA] [CA] ([CA]/[DB]/) | %7
 [Ec]2 [_Ge]>[Ge] [Fe]<[Fd] [Fc][FB] | [EA]<[Ec] [DB]>[CA] !fermata![CA]2 |] %9
V:2
 x2 | x8 | x8 | x8 | x4 E2 EF/G/ | A2 x3 E x2 | x8 | x8 | x6 |] %9
V:3
 [A,,A,]>[A,,A,] | [A,,A,][A,,A,][A,,A,][A,,A,] [A,,A,][A,,A,] [A,,A,]>[A,,A,] | %2
 [A,,A,][A,,A,][A,,A,][A,,A,] [E,G,]2 [E,G,]>[E,A,] | %3
 [E,B,][E,B,][E,B,][E,E] [E,B,][E,B,] [E,B,]>[E,B,] | %4
 [B,,B,][B,,B,][B,,B,][B,,B,] [E,G,]2 E,F,/G,/ | A,2 [A,C]>[A,D] [E,C]<[E,B,] [E,B,] (B,/C/) | %6
 [E,D]2 [E,D]>[E,E] [A,,D]<[A,,C] A,A, | A,2 A,>A, [D,A,]<[D,A,] [D,A,][D,A,] | %8
 [E,C]<[E,A,] [E,G,]>[E,A,] !fermata![A,,A,]2 |] %9
V:4
 x2 | x8 | x8 | x8 | x6 E, (F,/G,/) | A,2 x3 E, x2 | x6 A,A, | A,2 A,>A, x4 | x6 |] %9

